public/images/poses-lg/Bow.svg

<svg width="800" height="800" fill="none" xmlns="http://www.w3.org/2000/svg"><path d="M409.474 791.028s-48.107 4.544-67.475-2.499C314.51 778.533 214.547 651.08 217.046 628.59c2.499-22.491 19.992-27.49 19.992-27.49l109.959-64.975s79.97-67.475 92.465-62.477c12.496 4.998-24.99 27.49-22.491 37.486 2.499 9.997-9.996 19.993-14.994 19.993-4.999 0-17.494 2.499-24.99 12.495-7.498 9.997-57.479 72.474-97.464 84.969 0 0 49.981 42.483 59.977 52.479 0 0 42.484-7.497 74.972 32.488 32.488 39.984-4.998 77.47-4.998 77.47Z" fill="#fff" stroke="#000" stroke-width="5" stroke-miterlimit="10"/><path d="M409.474 791.028s-48.107 4.544-67.475-2.499C314.51 778.533 214.547 651.08 217.046 628.59c2.499-22.491 19.992-27.49 19.992-27.49l109.959-64.975s79.97-67.475 92.465-62.477c12.496 4.998-24.99 27.49-22.491 37.486 2.499 9.997-9.996 19.993-14.994 19.993-4.999 0-17.494 2.499-24.99 12.495-7.498 9.997-57.479 72.474-97.464 84.969 0 0 49.981 42.483 59.977 52.479 0 0 42.484-7.497 74.972 32.488 32.488 39.984-4.998 77.47-4.998 77.47Z" stroke="#000" stroke-width="5" stroke-miterlimit="10"/><path d="M535.286 624.786c-7.512-3.184-9.228-11.475-15.786-18.012-10.411-10.39-5.749-34.175 7.12-44.578 16.99-13.736 64.283 48.987 55.678 58.627-5.102 5.709-19.019 9.794-33.821 6.392-4.756-1.093-13.191-2.429-13.191-2.429Z" fill="#fff" stroke="#000" stroke-width="5" stroke-miterlimit="10"/><path d="M535.286 624.786c-7.512-3.184-9.228-11.475-15.786-18.012-10.411-10.39-5.749-34.175 7.12-44.578 16.99-13.736 64.283 48.987 55.678 58.627-5.102 5.709-19.019 9.794-33.821 6.392-4.756-1.093-13.191-2.429-13.191-2.429Z" stroke="#000" stroke-width="5" stroke-miterlimit="10"/><path d="M535.965 563.931c8.603 8.783 6.378 27.756.063 31.868-6.311 4.117-10.201 7.729-9.137 10.233 1.062 2.506 4.099 5.366 5.867 4.044 1.769-1.32 4.5-5.675 7.421-2.492 2.919 3.185 5.195 16.39.939 24.959-4.259 8.565-17.178 11.246-28.742 3.609-11.558-7.627-15.39-30.269-12.188-47.503 1.546-8.31 5.765-16.105 10.96-20.903 8.573-7.913 16.375-12.435 24.817-3.815Z" fill="#100200" stroke="#000" stroke-width="5" stroke-miterlimit="10"/><path d="M507.208 606.403c-1.434 8.427-.81 18.055-10.435 25.376-9.627 7.318-16.436 1.602-21.642 7.771-5.205 6.167-9.815 29.047-20.095 35.369-10.283 6.323-13.064-3.204-24.452 3.521-9.745 5.749.046 25.335-22.662 35.546-10.891 4.896-44.769-69.298-30.167-76.027 14.603-6.727 25.288 2.292 33.002-2.565 7.717-4.852 5.706-18.466 16.445-24.264 15.057-8.129 24.089 8.427 35.297 2.262 9.218-5.068 7.963-12.539 18.99-18.14 11.027-5.606 25.719 11.151 25.719 11.151Z" fill="#100200" stroke="#000" stroke-width="5" stroke-miterlimit="10"/><path d="M538.774 612.884c-1.418 8.808-5.504 17.025-11.793 23.35-4.583 4.61-10.236 9.079-16.298 11.097-14.994 4.998-39.985 42.483-44.983 49.98-4.998 7.497-32.487 24.991-49.98 17.494 0 0 16.244 36.236-8.748 76.221l74.794-1.186a20.905 20.905 0 0 0 7.841-1.663c14.155-6.004 62.178-28.222 68.559-55.878 7.496-32.488-4.999-49.981 9.995-89.966 14.995-39.984 17.494-97.463 14.995-104.96-2.499-7.498-89.967-54.979-89.967-54.979S465.7 464.9 453.205 469.898c-12.496 4.998-19.993 7.497-9.996 14.995 9.996 7.497 44.983 14.994 44.983 14.994l60.749 46.728a8.088 8.088 0 0 1 2.914 8.396c-3.051 12.036-10.558 42.225-13.081 57.873Z" fill="#fff" stroke="#000" stroke-width="5" stroke-miterlimit="10"/><path d="M538.774 612.884c-1.418 8.808-5.504 17.025-11.793 23.35-4.583 4.61-10.236 9.079-16.298 11.097-14.994 4.998-39.985 42.483-44.983 49.98-4.998 7.497-32.487 24.991-49.98 17.494 0 0 16.244 36.236-8.748 76.221l74.794-1.186a20.905 20.905 0 0 0 7.841-1.663c14.155-6.004 62.178-28.222 68.559-55.878 7.496-32.488-4.999-49.981 9.995-89.966 14.995-39.984 17.494-97.463 14.995-104.96-2.499-7.498-89.967-54.979-89.967-54.979S465.7 464.9 453.205 469.898c-12.496 4.998-19.993 7.497-9.996 14.995 9.996 7.497 44.983 14.994 44.983 14.994l60.749 46.728a8.088 8.088 0 0 1 2.914 8.396c-3.051 12.036-10.558 42.225-13.081 57.873Z" stroke="#000" stroke-width="5" stroke-miterlimit="10"/><path d="M349.655 533.9s.307 18.582 18.816 20.398Z" fill="#fff"/><path d="M349.655 533.9s.307 18.582 18.816 20.398" stroke="#000" stroke-width="5" stroke-miterlimit="10"/><path d="M349.655 533.9s.307 18.582 18.816 20.398" stroke="#000" stroke-width="5" stroke-miterlimit="10"/><path d="M499.106 508.283s13.057-2.729 11.692-16.183Z" fill="#fff"/><path d="M499.106 508.283s13.057-2.729 11.692-16.183" stroke="#000" stroke-width="5" stroke-miterlimit="10"/><path d="M499.106 508.283s13.057-2.729 11.692-16.183" stroke="#000" stroke-width="5" stroke-miterlimit="10"/></svg>

<svg width="800" height="800" viewBox="0 0 800 800" fill="none" xmlns="http://www.w3.org/2000/svg">
<path d="M409.474 791.028C409.474 791.028 361.367 795.572 341.999 788.529C314.51 778.533 214.547 651.08 217.046 628.59C219.545 606.099 237.038 601.1 237.038 601.1L346.997 536.125C346.997 536.125 426.967 468.65 439.462 473.648C451.958 478.646 414.472 501.138 416.971 511.134C419.47 521.131 406.975 531.127 401.977 531.127C396.978 531.127 384.483 533.626 376.987 543.622C369.489 553.619 319.508 616.096 279.523 628.591C279.523 628.591 329.504 671.074 339.5 681.07C339.5 681.07 381.984 673.573 414.472 713.558C446.96 753.542 409.474 791.028 409.474 791.028Z" fill="white" stroke="black" stroke-width="5" stroke-miterlimit="10"/>
<path d="M409.474 791.028C409.474 791.028 361.367 795.572 341.999 788.529C314.51 778.533 214.547 651.08 217.046 628.59C219.545 606.099 237.038 601.1 237.038 601.1L346.997 536.125C346.997 536.125 426.967 468.65 439.462 473.648C451.958 478.646 414.472 501.138 416.971 511.134C419.47 521.131 406.975 531.127 401.977 531.127C396.978 531.127 384.483 533.626 376.987 543.622C369.489 553.619 319.508 616.096 279.523 628.591C279.523 628.591 329.504 671.074 339.5 681.07C339.5 681.07 381.984 673.573 414.472 713.558C446.96 753.542 409.474 791.028 409.474 791.028Z" stroke="black" stroke-width="5" stroke-miterlimit="10"/>
<path d="M535.286 624.786C527.774 621.602 526.058 613.311 519.5 606.774C509.089 596.384 513.751 572.599 526.62 562.196C543.61 548.46 590.903 611.183 582.298 620.823C577.196 626.532 563.279 630.617 548.477 627.215C543.721 626.122 535.286 624.786 535.286 624.786Z" fill="white" stroke="black" stroke-width="5" stroke-miterlimit="10"/>
<path d="M535.286 624.786C527.774 621.602 526.058 613.311 519.5 606.774C509.089 596.384 513.751 572.599 526.62 562.196C543.61 548.46 590.903 611.183 582.298 620.823C577.196 626.532 563.279 630.617 548.477 627.215C543.721 626.122 535.286 624.786 535.286 624.786Z" stroke="black" stroke-width="5" stroke-miterlimit="10"/>
<path d="M535.965 563.931C544.568 572.714 542.343 591.687 536.028 595.799C529.717 599.916 525.827 603.528 526.891 606.032C527.953 608.538 530.99 611.398 532.758 610.076C534.527 608.756 537.258 604.401 540.179 607.584C543.098 610.769 545.374 623.974 541.118 632.543C536.859 641.108 523.94 643.789 512.376 636.152C500.818 628.525 496.986 605.883 500.188 588.649C501.734 580.339 505.953 572.544 511.148 567.746C519.721 559.833 527.523 555.311 535.965 563.931Z" fill="#100200" stroke="black" stroke-width="5" stroke-miterlimit="10"/>
<path d="M507.208 606.403C505.774 614.83 506.398 624.458 496.773 631.779C487.146 639.097 480.337 633.381 475.131 639.55C469.926 645.717 465.316 668.597 455.036 674.919C444.753 681.242 441.972 671.715 430.584 678.44C420.839 684.189 430.63 703.775 407.922 713.986C397.031 718.882 363.153 644.688 377.755 637.959C392.358 631.232 403.043 640.251 410.757 635.394C418.474 630.542 416.463 616.928 427.202 611.13C442.259 603.001 451.291 619.557 462.499 613.392C471.717 608.324 470.462 600.853 481.489 595.252C492.516 589.646 507.208 606.403 507.208 606.403Z" fill="#100200" stroke="black" stroke-width="5" stroke-miterlimit="10"/>
<path d="M538.774 612.884C537.356 621.692 533.27 629.909 526.981 636.234C522.398 640.844 516.745 645.313 510.683 647.331C495.689 652.329 470.698 689.814 465.7 697.311C460.702 704.808 433.213 722.302 415.72 714.805C415.72 714.805 431.964 751.041 406.972 791.026L481.766 789.84C484.468 789.8 487.122 789.228 489.607 788.177C503.762 782.173 551.785 759.955 558.166 732.299C565.662 699.811 553.167 682.318 568.161 642.333C583.156 602.349 585.655 544.87 583.156 537.373C580.657 529.875 493.189 482.394 493.189 482.394C493.189 482.394 465.7 464.9 453.205 469.898C440.709 474.896 433.212 477.395 443.209 484.893C453.205 492.39 488.192 499.887 488.192 499.887L548.941 546.615C551.5 548.587 552.647 551.877 551.855 555.011C548.804 567.047 541.297 597.236 538.774 612.884Z" fill="white" stroke="black" stroke-width="5" stroke-miterlimit="10"/>
<path d="M538.774 612.884C537.356 621.692 533.27 629.909 526.981 636.234C522.398 640.844 516.745 645.313 510.683 647.331C495.689 652.329 470.698 689.814 465.7 697.311C460.702 704.808 433.213 722.302 415.72 714.805C415.72 714.805 431.964 751.041 406.972 791.026L481.766 789.84C484.468 789.8 487.122 789.228 489.607 788.177C503.762 782.173 551.785 759.955 558.166 732.299C565.662 699.811 553.167 682.318 568.161 642.333C583.156 602.349 585.655 544.87 583.156 537.373C580.657 529.875 493.189 482.394 493.189 482.394C493.189 482.394 465.7 464.9 453.205 469.898C440.709 474.896 433.212 477.395 443.209 484.893C453.205 492.39 488.192 499.887 488.192 499.887L548.941 546.615C551.5 548.587 552.647 551.877 551.855 555.011C548.804 567.047 541.297 597.236 538.774 612.884Z" stroke="black" stroke-width="5" stroke-miterlimit="10"/>
<path d="M349.655 533.9C349.655 533.9 349.962 552.482 368.471 554.298Z" fill="white"/>
<path d="M349.655 533.9C349.655 533.9 349.962 552.482 368.471 554.298" stroke="black" stroke-width="5" stroke-miterlimit="10"/>
<path d="M349.655 533.9C349.655 533.9 349.962 552.482 368.471 554.298" stroke="black" stroke-width="5" stroke-miterlimit="10"/>
<path d="M499.106 508.283C499.106 508.283 512.163 505.554 510.798 492.1Z" fill="white"/>
<path d="M499.106 508.283C499.106 508.283 512.163 505.554 510.798 492.1" stroke="black" stroke-width="5" stroke-miterlimit="10"/>
<path d="M499.106 508.283C499.106 508.283 512.163 505.554 510.798 492.1" stroke="black" stroke-width="5" stroke-miterlimit="10"/>
</svg>
